X:1
T:James Gibb editions
T:Ave Maria I - Lemmens
T:#
%%score 1 { ( 2 4 ) | ( 3 5 ) }
L:1/8
Q:1/4=80
M:4/4
K:Ab
V:1 treble nm="Midi_74"
V:2 treble nm="Midi_20"
V:4 treble 
V:3 bass 
V:5 bass 
V:1
"^andante""^Jacques-Nicolas Lemmens\n(1823-81)""^Ave Maria I" z z2 | z8 | z8 |!p! c4 c3 B | %4
w: |||A- ve Ma-|
 (A/G/) F2 z z4 | e4 e3 d | (c/B/) A2 z z4 | (f4- fd) (d/c/)B | (e>c) A4 z2 | %9
w: ri\- * a,|a- ve Ma-|ri\- * a,|gra\- * * ti\- * a|ple\- * na:|
 d7/2 c/ (cB) (B/A/G/A/) | G4 z4 | c4- cccB |"^cresc." (c/B/ A2) A AA (=d/c/)B | %13
w: Do- mi- nus * te\- * * *|cum|be\- * ne- di- cta|tu * * in mu- li- e\- * ri-|
 BB (g/f/)e (e2 =d)_d | (c/B/"^,"A) (d/c/)d"^dim." F2 (E>D) | D2 z2 z!p! ABc | d2 A3 c/B/ (A_G) | %17
w: bus, in mu\- * li- e\- * ri-|bus, * * be\_- * ne- di- cta *|tu, et be- ne-|di- ctus, be- ne- di\- *|
 F4 z c=d=e | (=ef) c3 _e/=d/ (cB) |"^," =A2 f2 B2 _e2 | %20
w: ctus, et be- ne-|di\- * ctus, be- ne- di\- *|ctus fru- ctus ven-|
 !courtesy!_A2 (d2- d/c/) (c/B/) (B/A/G/A/) | G2 z2 z4 |!p! e6 dB | (A2 Bc) E2 z2 | e6 (dB) | %25
w: tris tu\- * * i, * Je\- * * *|sus.|San- cta Ma-|ri\- * * a,|Ma- ter *|
 (=A>B) c3"^stringendo" ccc | (f>e) =d3 ddd | (g>f) =e3 ccc |!f! (a>f)"^rit." d3"^dim." d2 d | %29
w: De\- * i, o- ra pro|no\- * bis, o- ra pro|no\- * bis, o- ra pro|no\- * bis pec- ca-|
 _c>A F4 z2 | z!pp! !courtesy!=cAF (G>A) G2 | c2 (AF) (G>A) G2 ||[K:F] z!f! FGA (cB) A2 | %33
w: to- ri- bus|nunc et in ho\- * ra|mor- tis * no\- * strae,|nunc et in ho\- * ra|
 z (AB)c (ed) c2 | z"^rit."!<(! cde!<)! (g!>(!f) (ed)!>)! |"^rit." c2"^dim." c2 c4 | %36
w: mor\- * tis no\- * strae,|nunc et in ho\- * ra *|mor- tis no-|
 c2 z2!p!"^rall."!>(! B4!>)! | c8 |] %38
w: strae. A-|men.|
V:2
!p! z z2 | z8 | z8 |!p! z"^Gambe" CFE DF=EG | FA,=A,E =D_A,G,_D | CEAG FAGB | %6
 A=B,C_G F!courtesy!_B=Ae | dB!courtesy!_A!courtesy!=G B2- B/A/G | cAEG Ac/B/ A/G/F | %9
 BGF=E AG- G/F/E/F/ | =EC D2 CF, B,2 | =A,CFE =D_AG_D |"^cresa" C_GF_C B,AF=D | EG B/A/G A_GF_F | %14
 E/D/C A_G!>(! F2 E2!>)! |!p! DA,DF _GA,EG | F3 D C E2 B, | =A,CF=A BCGB | =A3 F =E G2 E | %19
 FCB,D EB,A,C | DA!courtesy!=GF =EF G/F/E/F/ | =E"^cresc."C D2 =D2 F/_E/B,/_D/ |!p! C2 EA G2 F_F | %23
 E2 DC B,DCB, | A,CEA G2 F_F | E3 D C"^stringendo"_GFE | =D F2 E DAGF | =E G2 F EBA_G | %28
!f! F _c2 B __B"^dim."A!courtesy!=G_G | F __E2 D C=B,_B,=A, |!pp! !courtesy!_A,2 CD B,4 | %31
 A,CFC B,4 ||[K:F] [A,F]2 [B,G][CA] [DAc][GB] [FA]2- | [FA]2 [GB][Ac]- [Ae][Bd] c2- | %34
!<(! [Fc]2 d!<)!e!>(! gfe!>)!d | c2"^dim." !courtesy!_BA- [EA][DG][CD][B,E] |!p! F8- |!pp! F8 |] %38
V:3
"^Violoncelle" F,G,A, | =B,,A,G,_B,, =A,,G,F,_A,, | G,,B,,C,D, =E,,A,,G,,C,, | F,,2 A,,2 B,,2 C,2 | %4
 D,2 C,2 B,,2 E,2 | A,,2 C,2 D,2 E,2 | F,2 E,2 D,2 C,2 | B,,2 D,2 G,,2 E,2 | A,,2 C,2 F,,2 D,2 | %9
 G,,2 B,,2 =E,,2 F,,2 | C,, C,2 B,,2 A,,2 G,, | F,,2 =A,,2 B,,2 E,,2 | A,,2 D,2 =D,/=C,/ B,,2 A, | %13
 G,/F,/ E,2 !courtesy!_D C/B,/=A, A,/_A,/G, | _G,2 F,E, A,2 A,,2 | D,2 F,2 E,2 A,,2 | %16
 D,A,,D,F, _G,A,,C,E, | F,2 =A,2 G,2 C,2 | F,C,F,=A, B,C,=E,G, | F,!courtesy!_E,D,B,, _G,,D,C,A,, | %20
 F,,C,B,,A,, G,,A,,B,,=B,, | C,,"^cresc." C,2 _C,2 B,,2 E,, | A,, E,2 C, B,, E,2 D, | %23
 C, E,2 A, G,F,E,D, | C, E,2 C, B,, E,2 D, | C, _G,2 F,2 E,=D,C, | B,, A,2 !courtesy!=G,2 F,E,=D, | %27
 C, B,2 A,2 G,F,!courtesy!_E, | D,"^rit." D2 D,2"^dim." _C2 B, | A,2 A,,2- A,, G,,2 F,, | %30
 C,,4- C,,F,,=E,,D,, | C,,4- C,,F,,=E,,C,, ||[K:F] [F,,C,]6- [F,,C,][E,,^C,] | %33
 [D,,D,-]2 D,C,- C,B,,A,,G,, | F,,2 F,2 D,2 G,2 |"^rit." A,F,"^dim."G,A, CB,A,G, | %36
 F,A,,B,,C,!>(! _E,"^rall."_D,C,!>)!B,, | C,8 |] %38
V:4
 x3 | x8 | x8 | x8 | x8 | x8 | x8 | x8 | x8 | x8 | x8 | x8 | x8 | x8 | x8 | x8 | x8 | x8 | x8 | %19
 x8 | x8 | x8 | x8 | x8 | x8 | x8 | x8 | x8 | x8 | x8 | x8 | x4 x4 ||[K:F] F4 x4 | F6 [Fc][EB] | %34
 [Ac]6 [F-=B]2 | [Fc]4 x4 | A,!<(!C_DA,!<)! B,4 | A,8 |] %38
V:5
 x3 | x8 | x8 | x8 | x8 | x8 | x8 | x8 | x8 | x8 | x8 | x8 | x8 | x8 | x8 | x8 | x8 | x8 | x8 | %19
 x8 | x8 | x8 | x8 | x8 | x8 | x8 | x8 | x8 | x8 | x8 | x8 | x8 ||[K:F] x8 | x8 | x8 | C,8 | %36
 F,,4 _G,,4 | F,,8 |] %38

